Surfn/scalable/status/scalable/nm-device-wired-secure.svg

<svg version="1" viewBox="0 0 22 22" xmlns="http://www.w3.org/2000/svg">
 <path d="m20 16-5 5-5-5h3v-7h4v7h3zm-8-7-5-5-5 5h3v7h4v-7h3z" style="fill-rule:evenodd;fill:#000000;opacity:.3"/>
 <path d="m20 15-5 5-5-5h3v-7h4v7h3zm-8-7-5-5-5 5h3v7h4v-7h3z" style="fill-rule:evenodd;fill:#dfdbd2"/>
 <path d="m19 14c-1.108 0-2 0.91076-2 2.0312v0.96875c-0.554 0-1 0.446-1 1v3c0 0.554 0.446 1 1 1h4c0.554 0 1-0.446 1-1v-3c0-0.554-0.446-1-1-1v-0.96875c0-1.1205-0.892-2.0312-2-2.0312zm0 1c0.554 0 1 0.44236 1 1v1h-2v-1c0-0.55764 0.446-1 1-1z" style="fill:#000000;opacity:.3"/>
 <path d="m19 13c-1.108 0-2 0.91076-2 2.0312v0.96875c-0.554 0-1 0.446-1 1v3c0 0.554 0.446 1 1 1h4c0.554 0 1-0.446 1-1v-3c0-0.554-0.446-1-1-1v-0.96875c0-1.1205-0.892-2.0312-2-2.0312zm0 1c0.554 0 1 0.44236 1 1v1h-2v-1c0-0.55764 0.446-1 1-1z" style="fill:#dfdbd2"/>
</svg>

<?xml version="1.0" ?><!-- Created with Inkscape (http://www.inkscape.org/) --><svg height="22" id="svg3200" version="1.0" width="22" xmlns="http://www.w3.org/2000/svg" xmlns:cc="http://creativecommons.org/ns#" xmlns:dc="http://purl.org/dc/elements/1.1/" xmlns:rdf="http://www.w3.org/1999/02/22-rdf-syntax-ns#" xmlns:svg="http://www.w3.org/2000/svg">
  <metadata id="metadata8">
    <rdf:RDF>
      <cc:Work rdf:about="">
        <dc:format>image/svg+xml</dc:format>
        <dc:type rdf:resource="http://purl.org/dc/dcmitype/StillImage"/>
        <dc:title/>
      </cc:Work>
    </rdf:RDF>
  </metadata>
  <defs id="defs3202"/>
  <path d="m 20,16 -5,5 -5,-5 3,0 0,-7 4,0 0,7 3,0 z M 12,9 7,4 2,9 l 3,0 0,7 4,0 0,-7 3,0 z" id="path4348-1-9" style="opacity:0.3;fill:#000000;fill-opacity:1;fill-rule:evenodd;stroke:none;stroke-width:1.69999993;marker:none;visibility:visible;display:inline;overflow:visible;enable-background:accumulate"/>
  <path d="m 20,15 -5,5 -5,-5 3,0 0,-7 4,0 0,7 3,0 z M 12,8 7,3 2,8 l 3,0 0,7 4,0 0,-7 3,0 z" id="path4348-1" style="fill:#dfdbd2;fill-opacity:1;fill-rule:evenodd;stroke:none;stroke-width:1.69999993;marker:none;visibility:visible;display:inline;overflow:visible;enable-background:accumulate"/>

<!-- imported from 'ubuntu-mono-dark/status/22/nm-vpn-lock.svg' -->
<g id="svg3215">
  <metadata id="metadata12">
    <rdf:RDF>
      <cc:Work rdf:about="">
        <dc:format>image/svg+xml</dc:format>
        <dc:type rdf:resource="http://purl.org/dc/dcmitype/StillImage"/>
        <dc:title/>
      </cc:Work>
    </rdf:RDF>
  </metadata>
  <sodipodi:namedview bordercolor="#666666" borderopacity="1.0" gridtolerance="10.0" guidetolerance="10.0" id="base" inkscape:current-layer="svg3215" inkscape:cx="-2.6506024" inkscape:cy="13.012048" inkscape:pageopacity="0.0" inkscape:pageshadow="2" inkscape:window-height="753" inkscape:window-maximized="1" inkscape:window-width="1280" inkscape:window-x="0" inkscape:window-y="24" inkscape:zoom="10.375" objecttolerance="10.0" pagecolor="#ffffff" showgrid="false"/>
  <defs id="defs3217"/>
  <path d="M 19,14 C 17.892,14 17,14.910763 17,16.03125 L 17,17 C 16.446,17 16,17.446 16,18 L 16,21 C 16,21.554 16.446,22 17,22 L 21,22 C 21.554,22 22,21.554 22,21 L 22,18 C 22,17.446 21.554,17 21,17 L 21,16.03125 C 21,14.910764 20.108,14 19,14 z M 19,15 C 19.554,15 20,15.442363 20,16 L 20,17 L 18,17 L 18,16 C 18,15.442363 18.446,15 19,15 z" id="path2441" style="opacity:0.3;fill:#000000;fill-opacity:1;fill-rule:nonzero;stroke:none;stroke-width:1;stroke-linecap:butt;stroke-linejoin:miter;marker:none;marker-start:none;marker-mid:none;marker-end:none;stroke-miterlimit:4;stroke-dasharray:none;stroke-dashoffset:0;stroke-opacity:1;visibility:visible;display:inline;overflow:visible;enable-background:accumulate"/>
  <path d="M 19,13 C 17.892,13 17,13.910763 17,15.03125 L 17,16 C 16.446,16 16,16.446 16,17 L 16,20 C 16,20.554 16.446,21 17,21 L 21,21 C 21.554,21 22,20.554 22,20 L 22,17 C 22,16.446 21.554,16 21,16 L 21,15.03125 C 21,13.910764 20.108,13 19,13 z M 19,14 C 19.554,14 20,14.442363 20,15 L 20,16 L 18,16 L 18,15 C 18,14.442363 18.446,14 19,14 z" id="rect2822" style="opacity:1;fill:#dfdbd2;fill-opacity:1;fill-rule:nonzero;stroke:none;stroke-width:1;stroke-linecap:butt;stroke-linejoin:miter;marker:none;marker-start:none;marker-mid:none;marker-end:none;stroke-miterlimit:4;stroke-dasharray:none;stroke-dashoffset:0;stroke-opacity:1;visibility:visible;display:inline;overflow:visible;enable-background:accumulate"/>
</g>
</svg>
